svgs/light/8.svg

<svg xmlns="http://www.w3.org/2000/svg" viewBox="0 0 320 512"><!-- Font Awesome Pro 6.0.0-alpha2 by @fontawesome - https://fontawesome.com License - https://fontawesome.com/license (Commercial License) --><path d="M250.715 251.652C282.812 230.09 304 193.48 304 152C304 85.844 250.156 32 184 32H136C69.844 32 16 85.844 16 152C16 193.48 37.188 230.09 69.285 251.652C28.496 270.842 0 312.027 0 360C0 426.156 53.844 480 120 480H200C266.156 480 320 426.156 320 360C320 312.027 291.504 270.842 250.715 251.652ZM48 152C48 103.469 87.469 64 136 64H184C232.531 64 272 103.469 272 152S232.531 240 184 240H136C87.469 240 48 200.531 48 152ZM200 448H120C71.469 448 32 408.531 32 360S71.469 272 120 272H200C248.531 272 288 311.469 288 360S248.531 448 200 448Z"/></svg>

<svg xmlns="http://www.w3.org/2000/svg" viewBox="0 0 320 512"><!--! Font Awesome Pro 6.0.0-alpha3 by @fontawesome - https://fontawesome.com License - https://fontawesome.com/license (Commercial License) --><path d="M250.7 251.7C282.8 230.1 304 193.5 304 152C304 85.84 250.2 32 184 32h-48C69.84 32 16 85.84 16 152c0 41.48 21.19 78.09 53.29 99.65C28.5 270.8 0 312 0 360C0 426.2 53.84 480 120 480h80c66.16 0 120-53.84 120-120C320 312 291.5 270.8 250.7 251.7zM48 152C48 103.5 87.47 64 136 64h48c48.53 0 88 39.47 88 88S232.5 240 184 240h-48C87.47 240 48 200.5 48 152zM200 448h-80C71.47 448 32 408.5 32 360S71.47 272 120 272h80c48.53 0 88 39.47 88 88S248.5 448 200 448z"/></svg>
